Resources/nanocase.svg

<?xml version="1.0" encoding="UTF-8" standalone="no"?>
<svg
   xmlns:dc="http://purl.org/dc/elements/1.1/"
   xmlns:cc="http://creativecommons.org/ns#"
   xmlns:rdf="http://www.w3.org/1999/02/22-rdf-syntax-ns#"
   xmlns:svg="http://www.w3.org/2000/svg"
   xmlns="http://www.w3.org/2000/svg"
   xmlns:sodipodi="http://sodipodi.sourceforge.net/DTD/sodipodi-0.dtd"
   xmlns:inkscape="http://www.inkscape.org/namespaces/inkscape"
   width="720mm"
   height="181mm"
   viewBox="0 0 720 181"
   version="1.1"
   preserveAspectRatio="xMidYMid meet"
   id="svg908"
   sodipodi:docname="nanocase.svg"
   inkscape:version="1.0.2 (e86c8708, 2021-01-15)">
  <metadata
     id="metadata914">
    <rdf:RDF>
      <cc:Work
         rdf:about="">
        <dc:format>image/svg+xml</dc:format>
        <dc:type
           rdf:resource="http://purl.org/dc/dcmitype/StillImage" />
        <dc:title></dc:title>
      </cc:Work>
    </rdf:RDF>
  </metadata>
  <defs
     id="defs912" />
  <sodipodi:namedview
     pagecolor="#ffffff"
     bordercolor="#666666"
     borderopacity="1"
     objecttolerance="10"
     gridtolerance="10"
     guidetolerance="10"
     inkscape:pageopacity="0"
     inkscape:pageshadow="2"
     inkscape:window-width="1280"
     inkscape:window-height="947"
     id="namedview910"
     showgrid="false"
     inkscape:document-units="mm"
     inkscape:zoom="0.57461336"
     inkscape:cx="1334.4128"
     inkscape:cy="224.90503"
     inkscape:window-x="0"
     inkscape:window-y="23"
     inkscape:window-maximized="0"
     inkscape:current-layer="svg908"
     inkscape:document-rotation="0"
     inkscape:snap-global="false"
     inkscape:snap-page="false" />
  <g
     id="svgGroup"
     stroke-linecap="round"
     fill-rule="evenodd"
     font-size="12px"
     stroke="#000"
     stroke-width="0.25mm"
     fill="none"
     style="fill:none;stroke:#000000;stroke-width:0.25mm"
     transform="translate(1.5874928)">
    <path
       d="m 382,141 v 9.48 h -3 v 18.04 h 3 V 178 h 26.7 v 3 h 18.04 v -3 h 18.04 v 3 h 18.04 v -3 h 18.04 v 3 h 18.04 v -3 h 18.04 v 3 h 18.04 v -3 h 18.04 v 3 h 18.04 v -3 h 18.04 v 3 h 18.04 v -3 h 18.04 v 3 h 18.04 v -3 h 18.04 v 3 h 18.04 v -3 h 18.04 8.66 v -9.48 h 3 v -18.04 h -3 V 141 h -26.7 v -3 h -18.04 v 3 h -18.04 v -3 h -18.04 v 3 h -18.04 v -3 H 589.1 v 3 h -18.04 v -3 h -18.04 v 3 h -18.04 v -3 h -18.04 v 3 H 498.9 v -3 h -18.04 v 3 h -18.04 v -3 h -18.04 v 3 h -18.04 v -3 H 408.7 v 3 h -18.04 z"
       id="top_outsideCutPath"
       stroke="#FF0000"
       stroke-width="0.1"
       style="stroke:#ff0000;stroke-width:0.1"
       vector-effect="non-scaling-stroke" />
    <path
       d="m 382,95 v 9.48 h -3 v 18.04 h 3 V 132 h 26.7 v 3 h 18.04 v -3 h 18.04 v 3 h 18.04 v -3 h 18.04 v 3 h 18.04 v -3 h 18.04 v 3 h 18.04 v -3 h 18.04 v 3 h 18.04 v -3 h 18.04 v 3 h 18.04 v -3 h 18.04 v 3 h 18.04 v -3 h 18.04 v 3 h 18.04 v -3 h 18.04 8.66 v -9.48 h 3 v -18.04 h -3 V 95 h -26.7 v -3 h -18.04 v 3 h -18.04 v -3 h -18.04 v 3 H 607.14 V 92 H 589.1 v 3 h -18.04 v -3 h -18.04 v 3 h -18.04 v -3 h -18.04 v 3 H 498.9 v -3 h -18.04 v 3 h -18.04 v -3 h -18.04 v 3 H 426.74 V 92 H 408.7 v 3 h -18.04 z"
       id="bottom_outsideCutPath"
       stroke="#FF0000"
       stroke-width="0.1"
       style="stroke:#ff0000;stroke-width:0.1"
       vector-effect="non-scaling-stroke" />
  </g>
  <rect
     style="fill:none;stroke:#ff0000;stroke-width:0.0991392"
     id="rect23"
     width="321.50085"
     height="79.100861"
     x="5.6871719"
     y="4.9241962"
     ry="2.5363126" />
  <g
     id="g1515"
     transform="translate(1.5874928)">
    <path
       d="m 336,0 v 17.44 h -3 v 18.04 h 3 v 18.04 h -3 v 18.04 h 3 V 89 h 9.48 v -3 h 18.04 v 3 H 373 V 71.56 h 3 V 53.52 h -3 V 35.48 h 3 V 17.44 h -3 V 0 h -9.48 V 3 H 345.48 V 0 Z"
       id="right_outsideCutPath"
       stroke="#FF0000"
       stroke-width="0.1"
       style="fill:none;stroke:#ff0000;stroke-width:0.100013;stroke-miterlimit:4;stroke-dasharray:none"
       vector-effect="non-scaling-stroke" />
    <rect
       style="fill:none;fill-opacity:1;stroke:#ff0000;stroke-width:0.179118;stroke-miterlimit:4;stroke-dasharray:none;stroke-opacity:1"
       id="rect916"
       width="10.820882"
       height="14.820883"
       x="361.17325"
       y="24.00466" />
    <circle
       style="fill:none;fill-opacity:1;stroke:#ff0000;stroke-width:0.100013;stroke-miterlimit:4;stroke-dasharray:none;stroke-opacity:1"
       id="path918"
       cx="352.91702"
       cy="20.988529"
       r="3.5" />
    <rect
       style="fill:none;fill-opacity:1;stroke:#ff0000;stroke-width:0.173056;stroke-miterlimit:4;stroke-dasharray:none;stroke-opacity:1"
       id="rect916-25"
       width="10.826943"
       height="13.826944"
       x="343.15015"
       y="31.031872" />
  </g>
  <g
     id="g1523"
     transform="translate(1.5874928)">
    <path
       d="m 336,92 v 17.44 h -3 v 18.04 h 3 v 18.04 h -3 v 18.04 h 3 V 181 h 9.48 v -3 h 18.04 v 3 H 373 v -17.44 h 3 v -18.04 h -3 v -18.04 h 3 v -18.04 h -3 V 92 h -9.48 v 3 h -18.04 v -3 z"
       id="left_outsideCutPath"
       stroke="#FF0000"
       stroke-width="0.1"
       style="fill:none;stroke:#ff0000;stroke-width:0.1"
       vector-effect="non-scaling-stroke" />
    <rect
       style="fill:none;fill-opacity:1;stroke:#ff0000;stroke-width:0.100013;stroke-miterlimit:4;stroke-dasharray:none;stroke-opacity:1"
       id="rect916-2"
       width="7"
       height="15"
       x="359.04514"
       y="153" />
    <rect
       style="fill:none;fill-opacity:1;stroke:#ff0000;stroke-width:0.100013;stroke-miterlimit:4;stroke-dasharray:none;stroke-opacity:1"
       id="rect916-2-7"
       width="7"
       height="15"
       x="359.04514"
       y="121" />
    <rect
       style="fill:none;fill-opacity:1;stroke:#ff0000;stroke-width:0.100013;stroke-miterlimit:4;stroke-dasharray:none;stroke-opacity:1"
       id="rect916-2-7-0"
       width="5"
       height="11"
       x="360.04514"
       y="139" />
    <rect
       style="fill:none;fill-opacity:1;stroke:#ff0000;stroke-width:0.119942;stroke-miterlimit:4;stroke-dasharray:none;stroke-opacity:1"
       id="rect916-2-7-9"
       width="10.880057"
       height="13.880057"
       x="355.16507"
       y="98.124115" />
  </g>
  <path
     d="m 2.9999999,95 v 14.44001 H 0 V 127.48 h 2.9999999 v 18.04 H 0 v 18.04 H 2.9999999 V 178 H 31.2 v 3 h 18.039999 v -3 h 18.04 v 3 h 18.04 v -3 h 18.039981 v 3 h 18.04 v -3 h 18.04001 v 3 h 18.04 v -3 h 18.04 v 3 h 18.04 v -3 h 18.04 v 3 h 18.04 v -3 h 18.04 v 3 h 18.04 v -3 h 18.04 v 3 h 18.04 v -3 h 18.04 10.16 v -14.44 h 3 v -18.04 h -3 v -18.04 h 3 v -18.03999 h -3 V 95 h -28.2 v -3 h -18.04 v 3 h -18.04 v -3 h -18.04 v 3 h -18.04 v -3 h -18.04 v 3 h -18.04 v -3 h -18.04 v 3 h -18.04 v -3 h -18.04 v 3 h -18.04001 v -3 h -18.04 v 3 H 85.319999 v -3 h -18.04 v 3 h -18.04 V 92 H 31.2 v 3 H 13.159999 Z"
     id="top_outsideCutPath-6"
     stroke="#FF0000"
     stroke-width="0.1"
     style="fill:none;stroke:#ff0000;stroke-width:0.1"
     vector-effect="non-scaling-stroke" />
  <path
     d="M 2.9999999,3.0000001 V 17.439999 H 0 V 35.48 H 2.9999999 V 53.52 H 0 V 71.56 H 2.9999999 V 86 H 31.2 v 3 h 18.039999 v -3 h 18.04 v 3 h 18.04 v -3 h 18.039981 v 3 h 18.04 v -3 h 18.04001 v 3 h 18.04 v -3 h 18.04 v 3 h 18.04 v -3 h 18.04 v 3 h 18.04 v -3 h 18.04 v 3 h 18.04 v -3 h 18.04 v 3 h 18.04 v -3 h 18.04 10.16 V 71.56 h 3 V 53.52 h -3 V 35.48 h 3 V 17.439999 h -3 V 3.0000001 h -28.2 V 0 h -18.04 v 3.0000001 h -18.04 V 0 h -18.04 v 3.0000001 h -18.04 V 0 h -18.04 v 3.0000001 h -18.04 V 0 h -18.04 v 3.0000001 h -18.04 V 0 h -18.04 V 3.0000001 H 121.39998 V 0 h -18.04 V 3.0000001 H 85.319999 V 0 h -18.04 v 3.0000001 h -18.04 V 0 H 31.2 V 3.0000001 H 13.159999 Z"
     id="bottom_outsideCutPath-7"
     stroke="#FF0000"
     stroke-width="0.1"
     style="fill:none;stroke:#ff0000;stroke-width:0.1"
     vector-effect="non-scaling-stroke" />
</svg>

<?xml version="1.0" encoding="UTF-8" standalone="no"?>
<svg
   xmlns:dc="http://purl.org/dc/elements/1.1/"
   xmlns:cc="http://creativecommons.org/ns#"
   xmlns:rdf="http://www.w3.org/1999/02/22-rdf-syntax-ns#"
   xmlns:svg="http://www.w3.org/2000/svg"
   xmlns="http://www.w3.org/2000/svg"
   xmlns:sodipodi="http://sodipodi.sourceforge.net/DTD/sodipodi-0.dtd"
   xmlns:inkscape="http://www.inkscape.org/namespaces/inkscape"
   width="709mm"
   height="181mm"
   viewBox="0 0 709 181"
   version="1.1"
   preserveAspectRatio="xMidYMid meet"
   id="svg908"
   sodipodi:docname="nanocase.svg"
   inkscape:version="1.0.2 (e86c8708, 2021-01-15)">
  <metadata
     id="metadata914">
    <rdf:RDF>
      <cc:Work
         rdf:about="">
        <dc:format>image/svg+xml</dc:format>
        <dc:type
           rdf:resource="http://purl.org/dc/dcmitype/StillImage" />
        <dc:title />
      </cc:Work>
    </rdf:RDF>
  </metadata>
  <defs
     id="defs912" />
  <sodipodi:namedview
     pagecolor="#ffffff"
     bordercolor="#666666"
     borderopacity="1"
     objecttolerance="10"
     gridtolerance="10"
     guidetolerance="10"
     inkscape:pageopacity="0"
     inkscape:pageshadow="2"
     inkscape:window-width="1280"
     inkscape:window-height="947"
     id="namedview910"
     showgrid="false"
     inkscape:document-units="mm"
     inkscape:zoom="0.406313"
     inkscape:cx="1395.4576"
     inkscape:cy="451.22791"
     inkscape:window-x="0"
     inkscape:window-y="23"
     inkscape:window-maximized="0"
     inkscape:current-layer="svg908"
     inkscape:document-rotation="0" />
  <g
     id="svgGroup"
     stroke-linecap="round"
     fill-rule="evenodd"
     font-size="9pt"
     stroke="#000"
     stroke-width="0.25mm"
     fill="none"
     style="stroke:#000;stroke-width:0.25mm;fill:none">
    <path
       d="M 0 92 L 0 109.44 L 3 109.44 L 3 127.48 L 0 127.48 L 0 145.52 L 3 145.52 L 3 163.56 L 0 163.56 L 0 181 L 29.7 181 L 29.7 178 L 47.74 178 L 47.74 181 L 65.78 181 L 65.78 178 L 83.82 178 L 83.82 181 L 101.86 181 L 101.86 178 L 119.9 178 L 119.9 181 L 137.94 181 L 137.94 178 L 155.98 178 L 155.98 181 L 174.02 181 L 174.02 178 L 192.06 178 L 192.06 181 L 210.1 181 L 210.1 178 L 228.14 178 L 228.14 181 L 246.18 181 L 246.18 178 L 264.22 178 L 264.22 181 L 282.26 181 L 282.26 178 L 300.3 178 L 300.3 181 L 318.34 181 L 330 181 L 330 163.56 L 327 163.56 L 327 145.52 L 330 145.52 L 330 127.48 L 327 127.48 L 327 109.44 L 330 109.44 L 330 92 L 300.3 92 L 300.3 95 L 282.26 95 L 282.26 92 L 264.22 92 L 264.22 95 L 246.18 95 L 246.18 92 L 228.14 92 L 228.14 95 L 210.1 95 L 210.1 92 L 192.06 92 L 192.06 95 L 174.02 95 L 174.02 92 L 155.98 92 L 155.98 95 L 137.94 95 L 137.94 92 L 119.9 92 L 119.9 95 L 101.86 95 L 101.86 92 L 83.82 92 L 83.82 95 L 65.78 95 L 65.78 92 L 47.74 92 L 47.74 95 L 29.7 95 L 29.7 92 L 11.66 92 L 0 92 Z"
       id="front_outsideCutPath"
       stroke="#FF0000"
       stroke-width="0.1"
       style="stroke:#FF0000;stroke-width:0.1"
       vector-effect="non-scaling-stroke" />
    <path
       d="M 336 92 L 336 109.44 L 333 109.44 L 333 127.48 L 336 127.48 L 336 145.52 L 333 145.52 L 333 163.56 L 336 163.56 L 336 181 L 345.48 181 L 345.48 178 L 363.52 178 L 363.52 181 L 373 181 L 373 163.56 L 376 163.56 L 376 145.52 L 373 145.52 L 373 127.48 L 376 127.48 L 376 109.44 L 373 109.44 L 373 92 L 363.52 92 L 363.52 95 L 345.48 95 L 345.48 92 L 336 92 Z"
       id="left_outsideCutPath"
       stroke="#FF0000"
       stroke-width="0.1"
       style="stroke:#FF0000;stroke-width:0.1"
       vector-effect="non-scaling-stroke" />
    <path
       d="M 382 141 L 382 150.48 L 379 150.48 L 379 168.52 L 382 168.52 L 382 178 L 408.7 178 L 408.7 181 L 426.74 181 L 426.74 178 L 444.78 178 L 444.78 181 L 462.82 181 L 462.82 178 L 480.86 178 L 480.86 181 L 498.9 181 L 498.9 178 L 516.94 178 L 516.94 181 L 534.98 181 L 534.98 178 L 553.02 178 L 553.02 181 L 571.06 181 L 571.06 178 L 589.1 178 L 589.1 181 L 607.14 181 L 607.14 178 L 625.18 178 L 625.18 181 L 643.22 181 L 643.22 178 L 661.26 178 L 661.26 181 L 679.3 181 L 679.3 178 L 697.34 178 L 706 178 L 706 168.52 L 709 168.52 L 709 150.48 L 706 150.48 L 706 141 L 679.3 141 L 679.3 138 L 661.26 138 L 661.26 141 L 643.22 141 L 643.22 138 L 625.18 138 L 625.18 141 L 607.14 141 L 607.14 138 L 589.1 138 L 589.1 141 L 571.06 141 L 571.06 138 L 553.02 138 L 553.02 141 L 534.98 141 L 534.98 138 L 516.94 138 L 516.94 141 L 498.9 141 L 498.9 138 L 480.86 138 L 480.86 141 L 462.82 141 L 462.82 138 L 444.78 138 L 444.78 141 L 426.74 141 L 426.74 138 L 408.7 138 L 408.7 141 L 390.66 141 L 382 141 Z"
       id="top_outsideCutPath"
       stroke="#FF0000"
       stroke-width="0.1"
       style="stroke:#FF0000;stroke-width:0.1"
       vector-effect="non-scaling-stroke" />
    <path
       d="M 0 0 L 0 17.44 L 3 17.44 L 3 35.48 L 0 35.48 L 0 53.52 L 3 53.52 L 3 71.56 L 0 71.56 L 0 89 L 29.7 89 L 29.7 86 L 47.74 86 L 47.74 89 L 65.78 89 L 65.78 86 L 83.82 86 L 83.82 89 L 101.86 89 L 101.86 86 L 119.9 86 L 119.9 89 L 137.94 89 L 137.94 86 L 155.98 86 L 155.98 89 L 174.02 89 L 174.02 86 L 192.06 86 L 192.06 89 L 210.1 89 L 210.1 86 L 228.14 86 L 228.14 89 L 246.18 89 L 246.18 86 L 264.22 86 L 264.22 89 L 282.26 89 L 282.26 86 L 300.3 86 L 300.3 89 L 318.34 89 L 330 89 L 330 71.56 L 327 71.56 L 327 53.52 L 330 53.52 L 330 35.48 L 327 35.48 L 327 17.44 L 330 17.44 L 330 0 L 300.3 0 L 300.3 3 L 282.26 3 L 282.26 0 L 264.22 0 L 264.22 3 L 246.18 3 L 246.18 0 L 228.14 0 L 228.14 3 L 210.1 3 L 210.1 0 L 192.06 0 L 192.06 3 L 174.02 3 L 174.02 0 L 155.98 0 L 155.98 3 L 137.94 3 L 137.94 0 L 119.9 0 L 119.9 3 L 101.86 3 L 101.86 0 L 83.82 0 L 83.82 3 L 65.78 3 L 65.78 0 L 47.74 0 L 47.74 3 L 29.7 3 L 29.7 0 L 11.66 0 L 0 0 Z"
       id="back_outsideCutPath"
       stroke="#FF0000"
       stroke-width="0.1"
       style="stroke:#FF0000;stroke-width:0.1"
       vector-effect="non-scaling-stroke" />
    <path
       d="M 336 0 L 336 17.44 L 333 17.44 L 333 35.48 L 336 35.48 L 336 53.52 L 333 53.52 L 333 71.56 L 336 71.56 L 336 89 L 345.48 89 L 345.48 86 L 363.52 86 L 363.52 89 L 373 89 L 373 71.56 L 376 71.56 L 376 53.52 L 373 53.52 L 373 35.48 L 376 35.48 L 376 17.44 L 373 17.44 L 373 0 L 363.52 0 L 363.52 3 L 345.48 3 L 345.48 0 L 336 0 Z"
       id="right_outsideCutPath"
       stroke="#FF0000"
       stroke-width="0.1"
       style="stroke:#FF0000;stroke-width:0.1000125;stroke-miterlimit:4;stroke-dasharray:none"
       vector-effect="non-scaling-stroke" />
    <path
       d="M 382 95 L 382 104.48 L 379 104.48 L 379 122.52 L 382 122.52 L 382 132 L 408.7 132 L 408.7 135 L 426.74 135 L 426.74 132 L 444.78 132 L 444.78 135 L 462.82 135 L 462.82 132 L 480.86 132 L 480.86 135 L 498.9 135 L 498.9 132 L 516.94 132 L 516.94 135 L 534.98 135 L 534.98 132 L 553.02 132 L 553.02 135 L 571.06 135 L 571.06 132 L 589.1 132 L 589.1 135 L 607.14 135 L 607.14 132 L 625.18 132 L 625.18 135 L 643.22 135 L 643.22 132 L 661.26 132 L 661.26 135 L 679.3 135 L 679.3 132 L 697.34 132 L 706 132 L 706 122.52 L 709 122.52 L 709 104.48 L 706 104.48 L 706 95 L 679.3 95 L 679.3 92 L 661.26 92 L 661.26 95 L 643.22 95 L 643.22 92 L 625.18 92 L 625.18 95 L 607.14 95 L 607.14 92 L 589.1 92 L 589.1 95 L 571.06 95 L 571.06 92 L 553.02 92 L 553.02 95 L 534.98 95 L 534.98 92 L 516.94 92 L 516.94 95 L 498.9 95 L 498.9 92 L 480.86 92 L 480.86 95 L 462.82 95 L 462.82 92 L 444.78 92 L 444.78 95 L 426.74 95 L 426.74 92 L 408.7 92 L 408.7 95 L 390.66 95 L 382 95 Z"
       id="bottom_outsideCutPath"
       stroke="#FF0000"
       stroke-width="0.1"
       style="stroke:#FF0000;stroke-width:0.1"
       vector-effect="non-scaling-stroke" />
  </g>
  <rect
     style="fill:none;fill-opacity:1;stroke:#ff0000;stroke-width:0.179118;stroke-miterlimit:4;stroke-dasharray:none;stroke-opacity:1"
     id="rect916"
     width="10.820882"
     height="14.820883"
     x="361.17325"
     y="24.00466" />
  <circle
     style="fill:none;fill-opacity:1;stroke:#ff0000;stroke-width:0.100013;stroke-miterlimit:4;stroke-dasharray:none;stroke-opacity:1"
     id="path918"
     cx="352.91702"
     cy="20.988529"
     r="3.5" />
  <rect
     style="fill:none;stroke:#ff0000;stroke-width:0.100012"
     id="rect23"
     width="321.5"
     height="80.5"
     x="4.2362533"
     y="4.2326789"
     ry="2.5811749" />
  <rect
     style="fill:none;fill-opacity:1;stroke:#ff0000;stroke-width:0.100013;stroke-miterlimit:4;stroke-dasharray:none;stroke-opacity:1"
     id="rect916-2"
     width="7"
     height="15"
     x="359.04514"
     y="153" />
  <rect
     style="fill:none;fill-opacity:1;stroke:#ff0000;stroke-width:0.100013;stroke-miterlimit:4;stroke-dasharray:none;stroke-opacity:1"
     id="rect916-2-7"
     width="7"
     height="15"
     x="359.04514"
     y="121" />
  <rect
     style="fill:none;fill-opacity:1;stroke:#ff0000;stroke-width:0.100013;stroke-miterlimit:4;stroke-dasharray:none;stroke-opacity:1"
     id="rect916-2-7-0"
     width="5"
     height="11"
     x="360.04514"
     y="139" />
  <rect
     style="fill:none;fill-opacity:1;stroke:#ff0000;stroke-width:0.173056;stroke-miterlimit:4;stroke-dasharray:none;stroke-opacity:1"
     id="rect916-25"
     width="10.826943"
     height="13.826944"
     x="343.15015"
     y="31.031872" />
  <rect
     style="fill:none;fill-opacity:1;stroke:#ff0000;stroke-width:0.119942;stroke-miterlimit:4;stroke-dasharray:none;stroke-opacity:1"
     id="rect916-2-7-9"
     width="10.880057"
     height="13.880057"
     x="355.16507"
     y="98.124115" />
</svg>
